packages/components/src/internal/icons/cloud-compute.svg

<?xml version="1.0" encoding="UTF-8"?>
<svg width="30px" height="21px" viewBox="0 0 30 21" version="1.1" xmlns="http://www.w3.org/2000/svg" xmlns:xlink="http://www.w3.org/1999/xlink">
    <g stroke="none" stroke-width="1" fill="none" fill-rule="evenodd">
        <g transform="translate(-13.000000, -18.000000)" fill="#4D72AA" fill-rule="nonzero">
            <g transform="translate(13.000000, 18.000000)">
                <path d="M12,0 C13.375,0 14.640625,0.34375 15.796875,1.03125 C16.953125,1.71875 17.859375,2.625 18.515625,3.75 C19.265625,3.25 20.09375,3 21,3 C22.25,3 23.3125,3.4375 24.1875,4.3125 C25.0625,5.1875 25.5,6.25 25.5,7.5 C25.5,8.0625 25.40625,8.609375 25.21875,9.140625 C26.125,9.296875 26.9375,9.65625 27.65625,10.21875 C28.375,10.78125 28.9453125,11.484375 29.3671875,12.328125 C29.7890625,13.171875 30,14.0625 30,15 C30,16.65625 29.4140625,18.0703125 28.2421875,19.2421875 C27.0703125,20.4140625 25.65625,21 24,21 L24,21 L6.75,21 L6.44010417,20.9939236 C4.69878472,20.9250579 3.20833333,20.2708333 1.96875,19.03125 C0.65625,17.71875 0,16.125 0,14.25 C0,12.78125 0.421875,11.46875 1.265625,10.3125 C2.109375,9.15625 3.1875,8.34375 4.5,7.875 L4.5,7.875 L4.5,7.5 L4.50610284,7.17680921 C4.57933691,5.25246711 5.31167763,3.59457237 6.703125,2.203125 C8.171875,0.734375 9.9375,0 12,0 Z M16.12044,6 L13.1312969,6 C12.8578997,6 12.6245864,6.20998535 12.5881335,6.4875 L12.004886,11.3625 C11.961171,11.7 12.2163417,12 12.5480495,12 L15.5007396,12 L14.3488402,17.30625 C14.2686365,17.6625 14.531105,18 14.8810392,18 C15.0706017,18 15.2528666,17.8987427 15.3549278,17.71875 L18.9273183,10.44375 C19.1351073,10.06875 18.8726389,9.6 18.4534298,9.6 L15.8251852,9.6 L16.649008,6.70876465 C16.7401404,6.35251465 16.4813386,6 16.12044,6 Z"></path>
            </g>
        </g>
    </g>
</svg>

<svg width="30" height="21" xmlns="http://www.w3.org/2000/svg">
    <path d="M12 0a7.6 7.6 0 016.5 3.8c.8-.5 1.6-.8 2.5-.8 1.3 0 2.3.4 3.2 1.3.9.9 1.3 2 1.3 3.2 0 .6 0 1.1-.3 1.6a7 7 0 012.5 1.1A6.1 6.1 0 0130 15c0 1.7-.6 3-1.8 4.2A5.8 5.8 0 0124 21H6.4c-1.7 0-3.2-.7-4.4-2a6.6 6.6 0 01-2-4.8c0-1.4.4-2.7 1.3-3.9.8-1.1 1.9-2 3.2-2.4v-.7c0-2 .8-3.6 2.2-5A7.2 7.2 0 0112 0zm4.1 6h-3c-.2 0-.5.2-.5.5l-.6 4.9c0 .3.2.6.5.6h3l-1.2 5.3c0 .4.2.7.6.7.2 0 .4-.1.5-.3l3.5-7.3c.2-.3 0-.8-.4-.8h-2.7l.8-2.9c.1-.3-.1-.7-.5-.7z" fill="#4D72AA"/>
</svg>
